X: 18
T: London Bridge.
T: (A Game Song.  For directions, see page 7.)
%R: _
B: "The Everyday Song Book", 1927
F: http://www.library.pitt.edu/happybirthday/pdf/The_Everyday_Song_Book.pdf
Z: 2015 John Chambers <jc:trillian.mit.edu>
M: C
L: 1/4
K: F
% - - - - - - - - - - - - - - - - - - - - - - - - - - - - -
[|\
[cA]>[dB] [cA][BG] | [AF][BG] [c-A-][cA] | [GE][AF] [B-G-][BG] | [AF][BG] [c-A-][cA] |
w: 1.~Lon-don Bridge is fall-ing down,* fall-ing down,* fall-ing down,*
w: Build it up with i-ron bars.* I-ron bars,* i-ron bars,*
[cA]>[dB] [cA][BG] | [AF][BG] [c-A-][cA] | [G2E2] [c2E2] | [AF] [F2F2] z |]
w: 1.~Lon-don Bridge is fall-ing down,* My Fair La-dy.
w: Build it up with i-ron bars,* My Fair La-dy.
%
W:  3. Iron bars will rust away.
W:  4. Build it up with pins and needles.
W:  5. Pins and needles rust and bend.
W:  6. Build it up with penny loaves.
W:  7. Penny Loaves will tumble down.
W:  8. Build it up with gold and silver.
W:  9. Gold and silver I've not got.
W:
W: 10. Here's a prisoner I have got.
W: 11. What's the prisoner done to you?
W: 12. Stole my watch and broke my crown.
W: 13. What'll you take to set him free?
W: 14. One hundred pounds will set him free.
W: 15. One hundred pounds we have not got.
W: 16. Then off to prison you must go.
% - - - - - - - - - - - - - - - - - - - - - - - - - - - - -

%%sep 1 1 500
%%sep 1 1 500

